!!!OTL: JESU WUNDEN
!!!ARE: Europa, Mitteleuropa, Deutschland, Schlesien, Glatz
!!!SCT: E2015
!!!YEM: Copyright 1995, estate of Helmut Schaffrath.
**kern
*ICvox
*Ivox
*M4/4
*k[f#]
*G:
=1
{2g
2a
=2
4cc
4b
2b}
=3
{2dd
4cc
4b
=4
4b
4a
2a}
=5
{2a
4b
4a
=6
2g
4a
4b}
=7
{2cc
2b
=8
2a
2r}
=9
{2a
4b
4cc
=10
4b
4a
2a}
=11
{2cc
2b
=12
2a
2r}
=13
{2g
2a
=14
2b
4dd
4cc}
=15
{2b
2a
=16
1g}
==
!!!AGN: geistlich, Gebet, Jesus - Lied
!!!ONB: ESAC (Essen Associative Code) Database: ERK3
!!!AMT: simple quadruple
!!!AIN: vox
!!!EED: Helmut Schaffrath
!!!EEV: 1.0
*-
